src/assets/attach-document-icon.svg

<svg width="21" height="24" viewBox="0 0 21 24" fill="none" xmlns="http://www.w3.org/2000/svg">
<path d="M19.8746 5.08929C20.1246 5.33929 20.3389 5.67857 20.5174 6.10714C20.696 6.53571 20.7853 6.92857 20.7853 7.28571V22.7143C20.7853 23.0714 20.6603 23.375 20.4103 23.625C20.1603 23.875 19.8567 24 19.4996 24H1.49958C1.14244 24 0.838867 23.875 0.588867 23.625C0.338867 23.375 0.213867 23.0714 0.213867 22.7143V1.28571C0.213867 0.928571 0.338867 0.625 0.588867 0.375C0.838867 0.125 1.14244 0 1.49958 0H13.4996C13.8567 0 14.2496 0.0892857 14.6782 0.267857C15.1067 0.446429 15.446 0.660714 15.696 0.910714L19.8746 5.08929ZM13.9282 1.82143V6.85714H18.9639C18.8746 6.59821 18.7764 6.41518 18.6692 6.30804L14.4773 2.11607C14.3701 2.00893 14.1871 1.91071 13.9282 1.82143ZM19.071 22.2857V8.57143H13.4996C13.1424 8.57143 12.8389 8.44643 12.5889 8.19643C12.3389 7.94643 12.2139 7.64286 12.2139 7.28571V1.71429H1.92815V22.2857H19.071ZM5.35672 10.7143C5.35672 10.5893 5.3969 10.4866 5.47726 10.4062C5.55762 10.3259 5.6603 10.2857 5.7853 10.2857H15.2139C15.3389 10.2857 15.4415 10.3259 15.5219 10.4062C15.6023 10.4866 15.6424 10.5893 15.6424 10.7143V11.5714C15.6424 11.6964 15.6023 11.7991 15.5219 11.8795C15.4415 11.9598 15.3389 12 15.2139 12H5.7853C5.6603 12 5.55762 11.9598 5.47726 11.8795C5.3969 11.7991 5.35672 11.6964 5.35672 11.5714V10.7143ZM15.2139 13.7143C15.3389 13.7143 15.4415 13.7545 15.5219 13.8348C15.6023 13.9152 15.6424 14.0179 15.6424 14.1429V15C15.6424 15.125 15.6023 15.2277 15.5219 15.308C15.4415 15.3884 15.3389 15.4286 15.2139 15.4286H5.7853C5.6603 15.4286 5.55762 15.3884 5.47726 15.308C5.3969 15.2277 5.35672 15.125 5.35672 15V14.1429C5.35672 14.0179 5.3969 13.9152 5.47726 13.8348C5.55762 13.7545 5.6603 13.7143 5.7853 13.7143H15.2139ZM15.2139 17.1429C15.3389 17.1429 15.4415 17.183 15.5219 17.2634C15.6023 17.3438 15.6424 17.4464 15.6424 17.5714V18.4286C15.6424 18.5536 15.6023 18.6562 15.5219 18.7366C15.4415 18.817 15.3389 18.8571 15.2139 18.8571H5.7853C5.6603 18.8571 5.55762 18.817 5.47726 18.7366C5.3969 18.6562 5.35672 18.5536 5.35672 18.4286V17.5714C5.35672 17.4464 5.3969 17.3438 5.47726 17.2634C5.55762 17.183 5.6603 17.1429 5.7853 17.1429H15.2139Z" fill="black"/>
</svg>

<svg width="21" height="24" fill="none" xmlns="http://www.w3.org/2000/svg"><path d="M19.875 5.09c.25.25.464.589.642 1.017.179.429.268.822.268 1.179v15.428c0 .357-.125.661-.375.911a1.24 1.24 0 01-.91.375h-18a1.24 1.24 0 01-.911-.375 1.24 1.24 0 01-.375-.91V1.284c0-.356.125-.66.375-.91S1.142 0 1.499 0h12c.358 0 .75.09 1.18.268.428.178.767.393 1.017.643l4.179 4.178zm-5.947-3.27v5.036h5.036c-.09-.259-.188-.442-.295-.549l-4.192-4.192c-.107-.107-.29-.205-.549-.295zm5.143 20.465V8.57H13.5a1.24 1.24 0 01-.911-.375 1.24 1.24 0 01-.375-.91V1.714H1.928v20.572h17.143zM5.357 10.714a.42.42 0 01.12-.308c.08-.08.183-.12.308-.12h9.429a.42.42 0 01.308.12c.08.08.12.183.12.308v.857c0 .125-.04.228-.12.309a.417.417 0 01-.308.12H5.785a.417.417 0 01-.308-.12.417.417 0 01-.12-.309v-.857zm9.857 3a.42.42 0 01.308.12c.08.081.12.184.12.309V15c0 .125-.04.228-.12.308a.417.417 0 01-.308.12H5.785a.417.417 0 01-.308-.12.417.417 0 01-.12-.308v-.857c0-.125.04-.228.12-.308.08-.08.183-.12.308-.12h9.429zm0 3.429a.42.42 0 01.308.12c.08.08.12.183.12.308v.858a.42.42 0 01-.12.308.417.417 0 01-.308.12H5.785a.417.417 0 01-.308-.12.417.417 0 01-.12-.308v-.858a.42.42 0 01.12-.308c.08-.08.183-.12.308-.12h9.429z" fill="#000"/></svg>
